X:1
T:[ID 1-139a]
T:[ID 1-139a]
T:Bezeichnung standardisiert: Menuett Menuet 9.
T:Urheber unbekannt Erstbeleg: 1773 (Datum in der schriftlichen Quelle) Datum in der hier transkribierten schriftlichen Quelle: 1776 - 1791
C:Urheber unbekannt
C:Erstbeleg: 1773 (Datum in der schriftlichen Quelle)
C:Datum in der hier transkribierten schriftlichen Quelle: 1776 - 1791
L:1/8
M:3/4
K:D
V:1 treble 
V:1
 D2 F2 A2 | d3 efg | a2 a2 fa |{a} g2 eg f2 | A3 GFG | AGFE D2 | C2 g2 gf | f2 e4 :: A4 a2 | %9
 (ag)(gf) f2 | A4 g2 | (gf)(fe) e2 | b3"^1)" x x2 | x2 x2 x2 | x2 x2 x2 |{e} d6 :| %16

